images/icons/graduation-caps.svg

<svg width="36" height="36" viewBox="0 0 36 36" fill="none" xmlns="http://www.w3.org/2000/svg">
<path d="M28.9999 19.5V25.2308C29.0078 26.5216 28.3206 27.7754 27.2399 28.4418C24.436 30.1171 21.2472 31 18 31C14.7528 31 11.564 30.1171 8.76006 28.4418C7.67943 27.7754 6.99217 26.5216 7.00007 25.2308V19.5L16 23.5C17.2677 24.0447 18.7323 24.0447 20 23.5L28.9999 19.5Z" fill="#F5F5F5"/>
<circle cx="33" cy="22" r="2" fill="#F5F5F5"/>
<path d="M31 25C31 23.8954 31.8954 23 33 23C34.1046 23 35 23.8954 35 25V27C35 27.5523 34.5523 28 34 28H32C31.4477 28 31 27.5523 31 27V25Z" fill="#F5F5F5"/>
<path d="M32 18.5L34 18V22H32V18.5Z" fill="#F5F5F5"/>
<path d="M34.619 11.6758L19.4705 5.29534C19.005 5.10041 18.505 5 18 5C17.495 5 16.995 5.10041 16.5295 5.29534L1.381 11.6758C0.971554 11.8482 0.622206 12.1369 0.376596 12.5057C0.130986 12.8746 0 13.3073 0 13.7498C0 14.1924 0.130986 14.6251 0.376596 14.994C0.622206 15.3628 0.971554 15.6515 1.381 15.8239L16.5295 22.2043C16.995 22.3995 17.4949 22.5 18 22.5C18.5051 22.5 19.005 22.3995 19.4705 22.2043L34.619 15.8239C35.0284 15.6515 35.3778 15.3628 35.6234 14.994C35.869 14.6251 36 14.1924 36 13.7498C36 13.3073 35.869 12.8746 35.6234 12.5057C35.3778 12.1369 35.0284 11.8482 34.619 11.6758Z" fill="#F5F5F5"/>
</svg>

<svg xmlns="http://www.w3.org/2000/svg" width="36" height="36" fill="none"><path fill="#F5F5F5" d="M29 19.5v5.73c.008 1.292-.68 2.545-1.76 3.212A18.007 18.007 0 0 1 18 31c-3.247 0-6.436-.883-9.24-2.558-1.08-.667-1.768-1.92-1.76-3.211V19.5l9 4a5.1 5.1 0 0 0 4 0l9-4Z"/><circle cx="33" cy="22" r="2" fill="#F5F5F5"/><path fill="#F5F5F5" d="M31 25a2 2 0 1 1 4 0v2a1 1 0 0 1-1 1h-2a1 1 0 0 1-1-1v-2ZM32 18.5l2-.5v4h-2v-3.5ZM34.619 11.676l-15.148-6.38a3.808 3.808 0 0 0-2.942 0l-15.148 6.38a2.245 2.245 0 0 0 0 4.148l15.148 6.38a3.803 3.803 0 0 0 2.942 0l15.148-6.38a2.245 2.245 0 0 0 0-4.148Z"/></svg>
